dist/img/logo-w.svg

<svg width="246" height="78" viewBox="0 0 246 78" fill="none" xmlns="http://www.w3.org/2000/svg">
<path d="M35.5 0H105H245.5L210 78H0L35.5 0Z" fill="white"/>
<path d="M170.712 25.876L170.94 24.808H165.492L165.264 25.876H167.304L166.212 31H167.58L168.672 25.876H170.712ZM171.742 31L172.618 26.884H172.642L173.254 31H174.61L176.974 26.884H176.998L176.122 31H177.442L178.762 24.808H176.974L174.178 29.788H174.154L173.422 24.808H171.742L170.422 31H171.742Z" fill="#4B4649"/>
<path d="M87.0848 33.2817L83.3134 51H78.7572L80.3265 43.6089H72.5558L70.9864 51H66.4303L70.2018 33.2817H74.7579L73.3151 40.0653H81.0859L82.5287 33.2817H87.0848ZM84.2333 51L94.1809 35.1547C94.6534 34.4123 95.168 33.8807 95.7249 33.5601C96.2818 33.2395 97.0749 33.0792 98.1042 33.0792C98.9817 33.0792 99.6651 33.2226 100.154 33.5095C100.644 33.7963 100.973 34.3448 101.142 35.1547L104.407 51H99.8761L99.142 46.9501H91.675L89.2197 51H84.2333ZM96.9652 37.8884L93.5228 43.5077H98.7623L97.6992 37.8884C97.6317 37.5172 97.5558 37.3316 97.4714 37.3316C97.3364 37.3316 97.1677 37.5172 96.9652 37.8884ZM110.78 33.2817L112.703 46.4439C112.737 46.697 112.83 46.8235 112.982 46.8235C113.1 46.8235 113.243 46.697 113.412 46.4439L121.056 33.2817H126.068L116.45 48.8232C115.994 49.5657 115.446 50.1478 114.804 50.5697C114.18 50.9916 113.345 51.2025 112.298 51.2025C111.252 51.2025 110.501 50.9916 110.046 50.5697C109.59 50.1478 109.286 49.5657 109.134 48.8232L106.173 33.2817H110.78ZM135.638 33.0792C138.473 33.0792 140.524 33.5516 141.789 34.4966C143.072 35.4247 143.713 36.9688 143.713 39.1287C143.713 40.3606 143.595 41.5333 143.359 42.6471C143.038 44.1489 142.667 45.3976 142.245 46.3932C141.823 47.372 141.342 48.1904 140.802 48.8485C140.262 49.4897 139.57 49.9791 138.726 50.3166C137.883 50.6541 136.972 50.8819 135.993 51C135.014 51.135 133.782 51.2025 132.297 51.2025C129.462 51.2025 127.404 50.7384 126.121 49.8103C124.856 48.8654 124.223 47.3129 124.223 45.1529C124.223 43.9211 124.341 42.7483 124.577 41.6346C124.898 40.1496 125.261 38.9093 125.666 37.9137C126.087 36.9181 126.568 36.0997 127.108 35.4585C127.665 34.8004 128.365 34.3026 129.209 33.9651C130.053 33.6276 130.964 33.3998 131.943 33.2817C132.922 33.1467 134.153 33.0792 135.638 33.0792ZM129.209 42.1408C128.99 43.1364 128.88 43.997 128.88 44.7226C128.88 45.8026 129.175 46.562 129.766 47.0007C130.374 47.4395 131.378 47.6588 132.778 47.6588C134.618 47.6588 135.959 47.2623 136.803 46.4692C137.647 45.6761 138.288 44.2333 138.726 42.1408C138.946 41.1621 139.056 40.3099 139.056 39.5843C139.056 38.5043 138.752 37.745 138.144 37.3063C137.537 36.8506 136.533 36.6228 135.132 36.6228C133.293 36.6228 131.951 37.0194 131.108 37.8125C130.281 38.5887 129.648 40.0315 129.209 42.1408ZM158.456 51H151.394C147.023 51 144.838 48.9582 144.838 44.8745C144.838 43.7945 144.956 42.7146 145.192 41.6346C145.496 40.1665 145.859 38.9431 146.281 37.9644C146.72 36.9856 147.302 36.1335 148.027 35.4079C148.753 34.6654 149.656 34.1254 150.736 33.7879C151.816 33.4504 153.124 33.2817 154.659 33.2817H161.974L161.215 36.8253H156.153C154.111 36.8253 152.66 37.1797 151.799 37.8884C150.938 38.5972 150.28 40.0146 149.825 42.1408C149.605 43.2039 149.496 44.0223 149.496 44.5961C149.496 45.6929 149.825 46.4439 150.483 46.8488C151.158 47.2538 152.297 47.4563 153.9 47.4563H159.215L158.456 51Z" fill="#4B4649"/>
</svg>

<svg width="246" height="78" fill="none" xmlns="http://www.w3.org/2000/svg"><path d="M35.5 0h210L210 78H0L35.5 0z" fill="#fff"/><path d="M170.712 25.876l.228-1.068h-5.448l-.228 1.068h2.04L166.212 31h1.368l1.092-5.124h2.04zm1.03 5.124l.876-4.116h.024l.612 4.116h1.356l2.364-4.116h.024L176.122 31h1.32l1.32-6.192h-1.788l-2.796 4.98h-.024l-.732-4.98h-1.68L170.422 31h1.32zm-84.657 2.282L83.313 51h-4.556l1.57-7.391h-7.771L70.986 51H66.43l3.772-17.718h4.556l-1.443 6.783h7.77l1.444-6.783h4.556zM84.233 51l9.948-15.845c.472-.743.987-1.274 1.544-1.595.557-.32 1.35-.48 2.38-.48.877 0 1.56.143 2.049.43.49.286.819.835.988 1.645L104.407 51h-4.53l-.735-4.05h-7.467L89.22 51h-4.987zm12.732-13.112l-3.442 5.62h5.24l-1.064-5.62c-.067-.37-.143-.556-.228-.556-.135 0-.303.185-.506.556zm13.815-4.606l1.923 13.162c.034.253.127.38.279.38.118 0 .261-.127.43-.38l7.644-13.162h5.012l-9.618 15.541c-.456.743-1.004 1.325-1.646 1.747-.624.422-1.459.633-2.506.633-1.046 0-1.797-.211-2.252-.633-.456-.422-.76-1.004-.912-1.747l-2.961-15.541h4.607zm24.858-.203c2.835 0 4.886.473 6.151 1.418 1.283.928 1.924 2.472 1.924 4.632a16.94 16.94 0 01-.354 3.518c-.321 1.502-.692 2.75-1.114 3.746-.422.979-.903 1.797-1.443 2.456-.54.64-1.232 1.13-2.076 1.468-.843.337-1.754.565-2.733.683-.979.135-2.211.203-3.696.203-2.835 0-4.893-.465-6.176-1.393-1.265-.945-1.898-2.497-1.898-4.657 0-1.232.118-2.405.354-3.518.321-1.485.684-2.726 1.089-3.721.421-.996.902-1.814 1.442-2.456a5.259 5.259 0 012.101-1.493 10.82 10.82 0 012.734-.683c.979-.135 2.21-.203 3.695-.203zm-6.429 9.062c-.219.995-.329 1.856-.329 2.582 0 1.08.295 1.839.886 2.278.608.439 1.612.658 3.012.658 1.84 0 3.181-.397 4.025-1.19.844-.793 1.485-2.236 1.923-4.328.22-.979.33-1.831.33-2.557 0-1.08-.304-1.839-.912-2.278-.607-.455-1.611-.683-3.012-.683-1.839 0-3.181.396-4.024 1.19-.827.776-1.46 2.218-1.899 4.328zM158.456 51h-7.062c-4.371 0-6.556-2.042-6.556-6.126 0-1.08.118-2.16.354-3.24.304-1.468.667-2.69 1.089-3.67a8.5 8.5 0 011.746-2.556c.726-.743 1.629-1.283 2.709-1.62 1.08-.338 2.388-.506 3.923-.506h7.315l-.759 3.543h-5.062c-2.042 0-3.493.355-4.354 1.063-.861.71-1.519 2.127-1.974 4.253-.22 1.063-.329 1.881-.329 2.455 0 1.097.329 1.848.987 2.253.675.405 1.814.607 3.417.607h5.315L158.456 51z" fill="#4B4649"/></svg>
